X:1
T:Mrs. Flora Duncan  "1998.3"
M:C
L:1/8
Q:80
C:Iain Duncan
S:March
K:HP
[| A | \
{g}f2{gfg}fa{Gdc}d2{e}Ad | \
{g}d/2{e}A3/2{g}c3/2d/2{gef}e2-eA | \
{gef}e2{A}e3/2f/2{gf}g3/2e/2{gcd}c{e}A |
{g}A/2d3/2{gdG}d3/2e/2{gfg}f2-fA | \
{g}f2{gfg}fa{Gdc}d2{e}Ad | \
{g}d/2{e}A3/2{g}c3/2d/2{gef}e2-e{AGAG}A |
{ag}a3/2g/2{a}fa{f}g3/2e/2{gcd}cA | \
{gAGAG}A/2g3/2{fg}f3/2e/2{Gdc}d2-d|] [ | \
A |
{gAGAG}A2{gBd}B{e}A{Gdc}d2{e}Ad | \
{g}d/2{e}A3/2{g}c3/2d/2{gef}e2-eA | \
{gAGAG}A2{gBd}B{e}A{gef}e2{AGAG}Ae |
{g}e/2d3/2{gdG}d3/2e/2{gfg}f2-fA | \
{gAGAG}A2{gBd}B{e}A{gfg}f2{Gdc}d3/2e/2 | \
{g}fd{g}f/2a3/2{f}g2-g{a}f3/4g/4 |
{ag}a3/2g/2{a}fa{f}g3/2e/2{gcd}cA | \
{gAGAG}A/2g3/2{fg}f3/2e/2{Gdc}d2-d|]
